!!!OTL@@FUR: Duc' cl&acirc;s di ch&ecirc; murae
!!!OTL@IT: Tutti i sassi di quella muraglia
!!!OTL@EN: Every stone in this wall
**kern
*clefG2
*k[b-]
*F:
*M2/4
*MM65
*>[A]
*>A
4cc
4dd
=2
8a
8a
8dd
8dd
=3
2cc
=4
4.g
16r
16r
=5
4.ee
8dd
=6
8dd
8cc
8ff
8cc
=7
8cc
8b-
8cc
8dd
=8
2a
=9
4.cc
16r
16r
=10
4cc
4dd
=11
8a
8a
8dd
8dd
=12
2cc
=13
4.g
16r
16r
=14
4.ee
8dd
=15
8dd
8cc
8ff
8cc
=16
8cc
8b-
8.cc
16b-
=17
2a;
*-
!!!ARE: Friuli
!!!ENC: Kelly Leistikow
!!!END: 2002/03/07
!!!ref: @{OTL@@FUR}/@{OTL@EN}
